X:1
T:Somebody Cares (Bilhorn)
T:Somebody Cares (Bilhorn)
T:Walter Stillman Martin
T:Peter Philip Bilhorn, 1908
T:Public Domain Courtesy of the Cyber Hymnal™
T:Public Domain Courtesy of the Cyber Hymnal™
C:Walter Stillman Martin
Z:Public Domain
Z:Courtesy of the Cyber Hymnal™
%%score ( 1 2 ) 3
L:1/8
Q:1/4=135
M:6/4
K:Db
V:1 treble 
V:2 treble 
V:3 bass 
V:1
 [FA]2 [=E=G]2 [FA]2 [Ed]2 [Ec]2 [EB]2 | [FA]4 [DG]2 [DF]6 | F2 E2 D2 C6 | G2 F2 =E2 F6 | %4
w: 1.~Nev- er a- lone in this|earth- ly way,|Some- bo- dy cares,|some- bo- dy cares;|
w: 2.~When I am sing- ing a|hap- py song,|Some- bo- dy cares,|some- bo- dy cares;|
w: 3.~When I am wea- ry and|long for rest,|Some- bo- dy cares,|some- bo- dy cares;|
 [FA]2 [=E=G]2 [FA]2 [Ed]2 [Ec]2 [EB]2 | [FA]4 [DG]2 [DF]6 | [CE]2 C2 [CE]2 [CA]2 z2 [CE]2 | %7
w: I have a help- er each|bu- sy day,|Some- bo- dy cares, ’tis|
w: When I am fight- ing a-|gainst the wrong,|Some- bo- dy cares, ’tis|
w: When by the tempt- er I’m|sore- ly pressed,|Some- bo- dy cares, ’tis|
 [DB]6 [CA]6 | [CEG]2 [CE]2 [CF]2 [CG]2 [Ac]2 [GB]2 | [DFA]4 [DF]2 [DFA]6 | %10
w: Je- sus.|Some- bo- dy cares when the|clouds hang low,|
w: Je- sus;|Some- bo- dy cares when I|stand a- lone,|
w: Je- sus;|Some- bo- dy cares, and what-|e’er be- tide,|
 [EG]2 [GA]2 [GB]2 [GAc]2 [Acf]2 [GAe]2 | [FAd]4 [DF]2 [DFA]6 | %12
w: Cares when my heart is o’er-|whelmed with woe;|
w: Cares when the plea- sures of|earth are gone;|
w: Walks ev- ery hour by the|Christ- ian’s side;|
 [FAd]2 [FAc]2 [FAd]2 [FAe]2 [FAd]2 [FA]2 | [F_ce]4 [Fcd]2 [GBd]6 | [Bd]2 [Ac]2 [GB]2 [FA]4 [Fd]2 | %15
w: Cares and is mark- ing my|path be- low,|Some- bo- dy cares, ’tis|
w: Cares when my false hopes with|wings have flown,|Some- bo- dy cares, ’tis|
w: Love so a- maz- ing will|e’er a- bide,|Some- bo- dy cares, ’tis|
 [Ge]6 [Fd]6 ||"^Refrain" F8 B2 F2 | [FA]4 [FA]2 [GA]6 | G8 [Af]2 [Ge]2 | [DF]4 [=EB]2 [FA]6 | %20
w: Je- sus.|||||
w: Je- sus.|Some- bo- dy|cares for me,|Some- bo- dy|cares for me;|
w: Je- sus.|||||
 [Fd]2 [Fc]2 [Fd]2 [Fe]2 [Fd]2 [FA]2 | [Fe]4 [Fd]2 [Gd]6 | [Bd]2 [Ac]2 [GB]2 [FA]4 [Fd]2 | %23
w: |||
w: In all my life His kind|hand I see,|Some- bo- dy cares, ’tis|
w: |||
 [Ge]6 [Fd]6 |] %24
w: |
w: Je- sus.|
w: |
V:2
 x12 | x12 | x12 | x12 | x12 | x12 | x2 C2 x8 | x12 | x12 | x12 | x12 | x12 | x12 | x12 | x12 | %15
 x12 || (D2 D2 D2 D2) D4 | x12 | (E2 E2 E2 E2) x4 | x12 | x12 | x12 | x12 | x12 |] %24
V:3
 [D,A,]2 [D,A,]2 [D,A,]2 [D,=G,]2 [D,G,]2 [D,G,]2 | [D,A,]4 [D,B,]2 [D,A,]6 | A,2 G,2 F,2 E,6 | %3
w: ~ ~ ~ ~ ~ ~|~ ~ ~|~ ~ ~ ~|
 B,2 A,2 =G,2 A,6 | [D,A,]2 [D,A,]2 [D,A,]2 [D,=G,]2 [D,G,]2 [D,G,]2 | [D,A,]4 [D,B,]2 [D,A,]6 | %6
w: ~ ~ ~ ~|~ ~ ~ ~ ~ ~|~ ~ ~|
 [E,A,]2 [E,A,]2 [E,A,]2 [E,A,]2 z2 [E,A,]2 | [E,=G,]6 [A,,A,]6 | G,2 E,2 F,2 G,2 C2 B,2 | %9
w: ~ ~ ~ ~ ~|~ ~|~ ~ ~ ~ ~ ~|
 A,4 F,2 A,6 | G,2 A,2 B,2 C2 F2 E2 | D4 F,2 A,6 | D2 C2 D2 E2 D2 A,2 | E4 D2 D6 | %14
w: ~ ~ ~|~ ~ ~ ~ ~ ~|~ ~ ~|~ ~ ~ ~ ~ ~|~ ~ ~|
 [G,D]2 [G,D]2 [G,D]2 [A,D]4 [A,D]2 | [A,C]6 [D,A,]6 || [D,A,]2 [D,A,]2 [D,A,]2 [D,A,]4 D,2 | %17
w: ~ ~ ~ ~ ~|~ ~|Some- bo- dy cares, yes,|
 [D,A,]4 [=D,=B,]2 [E,C]6 | [A,C]2 [A,C]2 [A,C]2 [A,C]2 [A,D]2 [A,C]2 | [D,A,]4 [D,=G,]2 [D,A,]6 | %20
w: ~ ~ ~|Some- bo- dy cares, yes, He|cares for me.|
 [D,A,]2 [D,A,]2 [D,A,]2 [D,A,]2 [D,A,]2 [D,A,]2 | [D,_C]4 [D,C]2 [G,B,]6 | %22
w: ||
 [G,D]2 [G,D]2 [G,D]2 [A,D]4 [A,D]2 | [A,C]6 [D,A,]6 |] %24
w: ||

